packages/assets/static/images/icons/settings.svg

<svg width="24" height="24" viewBox="0 0 24 24" xmlns="http://www.w3.org/2000/svg">
<path d="M12 7.50004C11.11 7.50004 10.2399 7.76396 9.49992 8.25843C8.75989 8.7529 8.18312 9.4557 7.84252 10.278C7.50193 11.1002 7.41282 12.005 7.58645 12.8779C7.76008 13.7509 8.18867 14.5527 8.818 15.182C9.44734 15.8114 10.2492 16.2399 11.1221 16.4136C11.995 16.5872 12.8998 16.4981 13.7221 16.1575C14.5443 15.8169 15.2471 15.2401 15.7416 14.5001C16.2361 13.7601 16.5 12.8901 16.5 12C16.4987 10.807 16.0242 9.66308 15.1806 8.81943C14.3369 7.97579 13.1931 7.50128 12 7.50004ZM12 15C11.4066 15 10.8266 14.8241 10.3333 14.4945C9.83992 14.1648 9.45541 13.6963 9.22834 13.1481C9.00128 12.5999 8.94187 11.9967 9.05763 11.4148C9.17338 10.8328 9.4591 10.2983 9.87866 9.87872C10.2982 9.45917 10.8328 9.17344 11.4147 9.05769C11.9967 8.94193 12.5999 9.00134 13.148 9.2284C13.6962 9.45547 14.1647 9.83999 14.4944 10.3333C14.824 10.8267 15 11.4067 15 12C15 12.7957 14.6839 13.5588 14.1213 14.1214C13.5587 14.684 12.7956 15 12 15ZM20.25 12.2025C20.2537 12.0675 20.2537 11.9325 20.25 11.7975L21.6487 10.05C21.7221 9.95829 21.7728 9.8506 21.7969 9.73563C21.821 9.62067 21.8178 9.50165 21.7875 9.38817C21.5582 8.52623 21.2152 7.69865 20.7675 6.92723C20.7089 6.82628 20.6275 6.7404 20.5298 6.67644C20.4322 6.61248 20.3209 6.57219 20.205 6.55879L17.9812 6.31129C17.8887 6.21379 17.795 6.12004 17.7 6.03004L17.4375 3.80067C17.424 3.68462 17.3836 3.57333 17.3194 3.47567C17.2553 3.37801 17.1692 3.29668 17.0681 3.23817C16.2964 2.79131 15.4689 2.44864 14.6072 2.21911C14.4936 2.18891 14.3746 2.18583 14.2596 2.21009C14.1446 2.23435 14.037 2.28529 13.9453 2.35879L12.2025 3.75004C12.0675 3.75004 11.9325 3.75004 11.7975 3.75004L10.05 2.35411C9.95823 2.28076 9.85053 2.23 9.73557 2.2059C9.62061 2.1818 9.50159 2.18504 9.38811 2.21536C8.52631 2.44507 7.69878 2.78806 6.92717 3.23536C6.82622 3.29397 6.74034 3.37535 6.67638 3.473C6.61242 3.57065 6.57213 3.68189 6.55873 3.79786L6.31123 6.02536C6.21373 6.11848 6.11998 6.21223 6.02998 6.30661L3.80061 6.56254C3.68456 6.57605 3.57326 6.61647 3.4756 6.6806C3.37794 6.74473 3.29662 6.83079 3.23811 6.93192C2.79124 7.70363 2.44858 8.53114 2.21904 9.39286C2.18885 9.50641 2.18577 9.62547 2.21003 9.74044C2.23429 9.8554 2.28523 9.96306 2.35873 10.0547L3.74998 11.7975C3.74998 11.9325 3.74998 12.0675 3.74998 12.2025L2.35404 13.95C2.2807 14.0418 2.22994 14.1495 2.20584 14.2645C2.18174 14.3794 2.18498 14.4984 2.21529 14.6119C2.4446 15.4739 2.78761 16.3014 3.23529 17.0729C3.29391 17.1738 3.37529 17.2597 3.47294 17.3236C3.57059 17.3876 3.68183 17.4279 3.79779 17.4413L6.02154 17.6888C6.11467 17.7863 6.20842 17.88 6.30279 17.97L6.56248 20.1994C6.57598 20.3155 6.61641 20.4268 6.68054 20.5244C6.74467 20.6221 6.83073 20.7034 6.93186 20.7619C7.70357 21.2088 8.53108 21.5515 9.3928 21.781C9.50635 21.8112 9.62541 21.8143 9.74038 21.79C9.85534 21.7657 9.963 21.7148 10.0547 21.6413L11.7975 20.25C11.9325 20.2538 12.0675 20.2538 12.2025 20.25L13.95 21.6488C14.0417 21.7221 14.1494 21.7729 14.2644 21.797C14.3794 21.8211 14.4984 21.8179 14.6119 21.7875C15.4738 21.5582 16.3014 21.2152 17.0728 20.7675C17.1737 20.7089 17.2596 20.6276 17.3236 20.5299C17.3875 20.4322 17.4278 20.321 17.4412 20.205L17.6887 17.9813C17.7862 17.8888 17.88 17.795 17.97 17.7L20.1994 17.4375C20.3154 17.424 20.4267 17.3836 20.5244 17.3195C20.622 17.2554 20.7033 17.1693 20.7619 17.0682C21.2087 16.2965 21.5514 15.4689 21.7809 14.6072C21.8111 14.4937 21.8142 14.3746 21.7899 14.2597C21.7657 14.1447 21.7147 14.037 21.6412 13.9454L20.25 12.2025ZM18.7406 11.5932C18.7565 11.8642 18.7565 12.1359 18.7406 12.4069C18.7294 12.5925 18.7876 12.7756 18.9037 12.9207L20.234 14.5829C20.0814 15.068 19.8859 15.5386 19.65 15.9891L17.5312 16.2291C17.3467 16.2496 17.1764 16.3378 17.0531 16.4766C16.8726 16.6796 16.6804 16.8718 16.4775 17.0522C16.3387 17.1755 16.2505 17.3458 16.23 17.5304L15.9947 19.6472C15.5442 19.8833 15.0736 20.0788 14.5884 20.2313L12.9253 18.901C12.7922 18.7946 12.6269 18.7368 12.4565 18.7369H12.4115C12.1405 18.7529 11.8688 18.7529 11.5978 18.7369C11.4122 18.7257 11.2292 18.7839 11.084 18.9L9.41717 20.2313C8.93204 20.0786 8.46144 19.8832 8.01092 19.6472L7.77092 17.5313C7.75044 17.3468 7.66225 17.1764 7.52342 17.0532C7.32046 16.8727 7.12825 16.6805 6.94779 16.4775C6.82454 16.3387 6.65418 16.2505 6.46967 16.23L4.35279 15.9938C4.11672 15.5433 3.92126 15.0727 3.76873 14.5875L5.09904 12.9244C5.21521 12.7793 5.27334 12.5962 5.26217 12.4107C5.24623 12.1397 5.24623 11.8679 5.26217 11.5969C5.27334 11.4114 5.21521 11.2283 5.09904 11.0832L3.76873 9.41723C3.92138 8.93211 4.11684 8.4615 4.35279 8.01098L6.46873 7.77098C6.65325 7.7505 6.82361 7.66231 6.94686 7.52348C7.12732 7.32052 7.31952 7.12832 7.52248 6.94786C7.66187 6.82452 7.75042 6.65377 7.77092 6.46879L8.00623 4.35286C8.4567 4.11679 8.92731 3.92132 9.41248 3.76879L11.0756 5.09911C11.2207 5.21527 11.4038 5.2734 11.5894 5.26223C11.8604 5.24629 12.1321 5.24629 12.4031 5.26223C12.5887 5.2734 12.7717 5.21527 12.9169 5.09911L14.5828 3.76879C15.0679 3.92144 15.5385 4.1169 15.989 4.35286L16.229 6.46879C16.2495 6.65331 16.3377 6.82367 16.4765 6.94692C16.6795 7.12738 16.8717 7.31958 17.0522 7.52254C17.1754 7.66138 17.3458 7.74956 17.5303 7.77004L19.6472 8.00536C19.8832 8.45583 20.0787 8.92644 20.2312 9.41161L18.9009 11.0747C18.7836 11.2211 18.7254 11.406 18.7378 11.5932H18.7406Z"/>
</svg>

<svg viewBox="0 0 24 24" xmlns="http://www.w3.org/2000/svg" aria-hidden="true" fill="currentColor"><path d="M12 7.5a4.5 4.5 0 1 0 0 9 4.5 4.5 0 0 0 0-9m0 7.5a3 3 0 1 1 0-6 3 3 0 0 1 0 6m8.25-2.797a7 7 0 0 0 0-.405l1.399-1.748a.75.75 0 0 0 .139-.662 10 10 0 0 0-1.02-2.46.75.75 0 0 0-.563-.37l-2.224-.247a8 8 0 0 0-.281-.281l-.262-2.23a.75.75 0 0 0-.37-.562c-.772-.447-1.6-.79-2.46-1.019a.75.75 0 0 0-.663.14L12.203 3.75h-.405L10.05 2.354a.75.75 0 0 0-.662-.139c-.862.23-1.69.573-2.46 1.02a.75.75 0 0 0-.37.563l-.247 2.227a9 9 0 0 0-.281.282l-2.23.256a.75.75 0 0 0-.562.369c-.447.772-.79 1.6-1.019 2.46a.75.75 0 0 0 .14.663l1.391 1.742v.406L2.354 13.95a.75.75 0 0 0-.139.662c.23.862.573 1.69 1.02 2.46a.75.75 0 0 0 .563.37l2.224.247q.14.146.28.281l.26 2.23a.75.75 0 0 0 .37.562c.772.447 1.6.79 2.46 1.019a.75.75 0 0 0 .663-.14l1.742-1.391q.202.006.406 0l1.747 1.399a.75.75 0 0 0 .662.139 10 10 0 0 0 2.46-1.02.75.75 0 0 0 .37-.563l.247-2.224q.146-.138.281-.281l2.23-.262a.75.75 0 0 0 .562-.37 10 10 0 0 0 1.019-2.46.75.75 0 0 0-.14-.663zm-1.51-.61q.026.407 0 .814a.75.75 0 0 0 .164.514l1.33 1.662a8.6 8.6 0 0 1-.584 1.406l-2.119.24a.75.75 0 0 0-.478.248q-.27.305-.576.575a.75.75 0 0 0-.247.478l-.235 2.117q-.676.355-1.407.584l-1.663-1.33a.75.75 0 0 0-.469-.164h-.044a7 7 0 0 1-.814 0 .75.75 0 0 0-.514.163l-1.667 1.331a8.6 8.6 0 0 1-1.406-.584l-.24-2.116a.75.75 0 0 0-.248-.478 7 7 0 0 1-.575-.576.75.75 0 0 0-.478-.247l-2.117-.236a8.6 8.6 0 0 1-.584-1.406l1.33-1.664a.75.75 0 0 0 .163-.513 7 7 0 0 1 0-.814.75.75 0 0 0-.163-.514l-1.33-1.666q.229-.73.584-1.406l2.116-.24a.75.75 0 0 0 .478-.248q.271-.304.575-.575a.75.75 0 0 0 .249-.48l.235-2.115q.677-.355 1.406-.584l1.664 1.33a.75.75 0 0 0 .513.163q.407-.024.814 0a.75.75 0 0 0 .514-.163l1.666-1.33q.73.229 1.406.584l.24 2.116a.75.75 0 0 0 .248.478q.305.27.575.576a.75.75 0 0 0 .478.247l2.117.235q.355.676.584 1.407l-1.33 1.663a.75.75 0 0 0-.163.518z"/></svg>
